main-pages/gulp-scss-starter/dist/img/default/offer/services8.svg

<svg width="24" height="24" viewBox="0 0 24 24" fill="none" xmlns="http://www.w3.org/2000/svg">
<path d="M5.49951 11.095H8.45149L11.0985 4.3208L14.275 14.3208L16.9221 8.51435L18.5103 11.095H22.7456" stroke="#616161"/>
<path d="M8.0462 16.3203L0.999771 23.461M13.8972 18.615C9.09717 18.615 5.20599 14.6718 5.20599 9.8075C5.20599 4.94325 9.09717 1 13.8972 1C18.6972 1 22.5884 4.94325 22.5884 9.8075C22.5884 14.6718 18.6972 18.615 13.8972 18.615Z" stroke="#616161"/>
</svg>

<svg width="24" height="24" viewBox="0 0 24 24" fill="none" xmlns="http://www.w3.org/2000/svg"><path d="M5.5 11.095h2.95l2.647-6.774 3.177 10 2.647-5.807 1.588 2.581h4.236" stroke="#616161"/><path d="M8.046 16.32L1 23.461m12.897-4.846c-4.8 0-8.691-3.943-8.691-8.807C5.206 4.942 9.097 1 13.897 1c4.8 0 8.691 3.943 8.691 8.807 0 4.865-3.89 8.808-8.69 8.808z" stroke="#616161"/></svg>
